X: 93
T:Christmas Comes But Once A Year. WI.093
T:Greensleeves. WI.093
M:6/8
Q:120
C:"Old English Dance"
S:Wm Irwin, Folio MS, c1850. AGG's Transcription
R:Jig
O:England
A:Lake District
Z:vmp.Chris Partington.2005
K:Bb
A|B2B Bcd|cAF FGA|B2G GAB|A^FD D2A|!
B2B Bcd|cAF FGA|BAG AG^F|G3-G2:|!
|:d/e/|f2f fed|cAF F2f|g2g bag|^fdd d2=e|!
fgf fed cAF FGA|BAG AG^F|G3-G2:|]
